src/icons/package-rollback.svg

<?xml version="1.0" encoding="UTF-8"?>
<svg xmlns="http://www.w3.org/2000/svg" xmlns:xlink="http://www.w3.org/1999/xlink" width="33.507999" height="32" viewBox="0 0 33.507999 32" version="1.1">
<g id="surface1">
<path style=" stroke:none;fill-rule:nonzero;fill:rgb(25.098041%,25.098041%,25.490198%);fill-opacity:1;" d="M 20.109375 27.394531 L 13.398438 27.394531 L 11.980469 30.328125 L 10.050781 30.328125 L 10.050781 32 L 23.457031 32 L 23.457031 30.328125 L 21.527344 30.328125 Z M 31.796875 4.351562 L 30.292969 4.351562 L 30.292969 6.027344 L 31.796875 6.027344 C 31.816406 6.027344 31.832031 6.042969 31.832031 6.0625 L 31.832031 24.445312 C 31.832031 24.464844 31.816406 24.480469 31.796875 24.480469 L 1.710938 24.480469 C 1.691406 24.480469 1.675781 24.464844 1.675781 24.445312 L 1.675781 6.0625 C 1.675781 6.042969 1.691406 6.027344 1.710938 6.027344 L 18.464844 6.027344 L 18.464844 4.351562 L 1.710938 4.351562 C 0.765625 4.351562 0 5.117188 0 6.0625 L 0 24.445312 C 0 25.390625 0.765625 26.15625 1.710938 26.15625 L 31.796875 26.15625 C 32.742188 26.15625 33.507812 25.390625 33.507812 24.445312 L 33.507812 6.0625 C 33.507812 5.117188 32.742188 4.351562 31.796875 4.351562 M 20.824219 6.027344 L 23.953125 9.15625 L 23.953125 6.824219 C 24.03125 6.820312 24.105469 6.816406 24.179688 6.816406 C 24.640625 6.816406 25.101562 6.878906 25.546875 7.007812 C 27.003906 7.425781 28.195312 8.480469 28.785156 9.875 C 28.933594 10.222656 28.984375 10.609375 29.289062 10.871094 C 29.421875 10.984375 29.617188 11.042969 29.777344 10.96875 C 30.066406 10.835938 30.058594 10.429688 30.085938 10.164062 C 30.101562 9.980469 30.109375 9.792969 30.109375 9.605469 C 30.109375 8.710938 29.914062 7.820312 29.535156 7.007812 L 29.53125 7.003906 C 29.371094 6.660156 29.179688 6.332031 28.960938 6.027344 C 28.476562 5.351562 27.863281 4.785156 27.15625 4.351562 C 26.539062 3.976562 25.863281 3.710938 25.15625 3.570312 C 24.761719 3.488281 24.355469 3.449219 23.953125 3.453125 L 23.953125 1.171875 L 19.960938 5.164062 Z M 10.308594 18.441406 L 16.335938 21.917969 L 16.335938 16.027344 L 10.308594 12.550781 Z M 23.199219 12.550781 L 17.171875 16.027344 L 17.171875 21.917969 L 23.199219 18.441406 Z M 22.777344 11.828125 L 16.753906 8.351562 L 10.730469 11.828125 L 16.753906 15.304688 Z M 22.777344 11.828125 "/>
</g>
</svg>

<svg role="img" viewBox="0 0 33.508 32" xmlns="http://www.w3.org/2000/svg"><path d="M20.11 27.395h-6.712l-1.418 2.933h-1.93V32h13.407v-1.672h-1.93ZM31.797 4.352h-1.504v1.675h1.504c.02 0 .035.016.035.035v18.383c0 .02-.016.035-.035.035H1.71a.035.035 0 0 1-.035-.035V6.063c0-.02.015-.036.035-.036h16.754V4.352H1.71A1.71 1.71 0 0 0 0 6.062v18.383a1.71 1.71 0 0 0 1.71 1.711h30.087a1.71 1.71 0 0 0 1.71-1.71V6.062a1.71 1.71 0 0 0-1.71-1.711M20.824 6.027l3.13 3.13V6.823c.077-.004.151-.008.226-.008a4.979 4.979 0 0 1 1.367.192 5.023 5.023 0 0 1 3.238 2.867c.149.348.2.734.504.996.133.113.328.172.488.098.29-.133.282-.54.309-.805.016-.184.023-.371.023-.559 0-.894-.195-1.785-.574-2.597l-.004-.004a6.252 6.252 0 0 0-.57-.977 6.25 6.25 0 0 0-1.805-1.675 6.136 6.136 0 0 0-2-.782 6.08 6.08 0 0 0-1.203-.117v-2.28l-3.992 3.992ZM10.309 18.441l6.027 3.477v-5.89l-6.027-3.477ZM23.2 12.55l-6.028 3.477v5.891l6.027-3.477Zm-.423-.722-6.023-3.476-6.024 3.476 6.024 3.477Zm0 0" style="stroke:none;fill-rule:nonzero;fill:rgb(25.098041%,25.098041%,25.490198%);fill-opacity:1"/></svg>
